public/convert.svg

<svg fill="none" height="25" viewBox="0 0 24 25" width="24" xmlns="http://www.w3.org/2000/svg"><g stroke="#fff" stroke-linecap="round" stroke-linejoin="round" stroke-width="1.5"><path d="m9 22.5h6c5 0 7-2 7-7v-6c0-5-2-7-7-7h-6c-5 0-7 2-7 7v6c0 5 2 7 7 7z"/><g stroke-miterlimit="10"><path d="m17.1494 14.3203-3.04 3.04"/><path d="m6.84961 14.3203h10.29999"/><path d="m6.84961 10.6806 3.04-3.03998"/><path d="m17.1496 10.6797h-10.29999"/></g></g></svg>

<svg width="24" height="25" viewBox="0 0 24 25" fill="none" xmlns="http://www.w3.org/2000/svg">
<path d="M9 22.5H15C20 22.5 22 20.5 22 15.5V9.5C22 4.5 20 2.5 15 2.5H9C4 2.5 2 4.5 2 9.5V15.5C2 20.5 4 22.5 9 22.5Z" stroke="white" stroke-width="1.5" stroke-linecap="round" stroke-linejoin="round"/>
<path d="M17.1494 14.3203L14.1094 17.3603" stroke="white" stroke-width="1.5" stroke-miterlimit="10" stroke-linecap="round" stroke-linejoin="round"/>
<path d="M6.84961 14.3203H17.1496" stroke="white" stroke-width="1.5" stroke-miterlimit="10" stroke-linecap="round" stroke-linejoin="round"/>
<path d="M6.84961 10.6806L9.88961 7.64062" stroke="white" stroke-width="1.5" stroke-miterlimit="10" stroke-linecap="round" stroke-linejoin="round"/>
<path d="M17.1496 10.6797H6.84961" stroke="white" stroke-width="1.5" stroke-miterlimit="10" stroke-linecap="round" stroke-linejoin="round"/>
</svg>
